X:3365
T:L'âne Martin - Tour
O:england
C:Perroches: Midi Breton
M:4/4
L:1/8
K:G
e2 eed2de|d2c2B4|e2 eed2de|d2c2B4:|\
|:c2Bcd2e2|c2B2A2Bc|B2A2G4|\
c2Bcd2e2|c2B2A2Bc|B2e2A4:|


